X: 3
T: Palm Sunday
R: slide
M: 12/8
L: 1/8
K: Ador
|: B |AGE G2 E G2 E E2 G | A2 B c2 d e2 ^d efg |
edB d2 A B2 A BB/c/d | edc BAG B2 A A2 :|
|: e |a^ga efg a^ga e2 f | g2 g gg/f/e dBA G2 d |
ee/f/g d2 [dg] BAG B2 d | edc B2 G B2 A A2 :|


Tune 770	Setting 28703

